build/img/icon-linkedin.svg

<svg width="80" height="80" viewBox="0 0 80 80" fill="none" xmlns="http://www.w3.org/2000/svg">
<path d="M40 0C17.9286 0 0 17.9286 0 40C0 62.0714 17.9286 80 40 80C62.0714 80 80 62.0714 80 40C80 17.9286 62.0714 0 40 0ZM29.5 59.6429H19.8571V30.8571H29.4286V59.6429H29.5ZM24.7143 26.9286C21.4286 26.9286 19.3571 24.7143 19.3571 21.9286C19.3571 19.0714 21.5 16.9286 24.7857 16.9286C28.0714 16.9286 30.0714 19.0714 30.1429 21.9286C30.0714 24.7143 28 26.9286 24.7143 26.9286ZM64 59.6429H54.4286V44.2143C54.4286 40.3571 53.0714 37.7143 49.5714 37.7143C46.9286 37.7143 45.3571 39.5 44.6429 41.2143C44.4286 41.8571 44.3571 42.7143 44.3571 43.5714V59.6429H34.7857C34.7857 59.6429 34.9286 33.5714 34.7857 30.8571H44.3571V34.9286C45.6429 33 47.9286 30.1429 53 30.1429C59.2857 30.1429 64 34.2857 64 43.0714V59.6429V59.6429ZM44.3571 35V34.9286C44.3571 35 44.2857 35 44.3571 35Z" fill="#2581D0"/>
</svg>

<svg width="80" height="80" fill="none" xmlns="http://www.w3.org/2000/svg"><path d="M40 0C17.929 0 0 17.929 0 40s17.929 40 40 40 40-17.929 40-40S62.071 0 40 0zM29.5 59.643h-9.643V30.857h9.572v28.786h.071zm-4.786-32.714c-3.285 0-5.357-2.215-5.357-5 0-2.858 2.143-5 5.429-5 3.285 0 5.285 2.142 5.357 5-.072 2.785-2.143 5-5.429 5zM64 59.643h-9.571V44.214c0-3.857-1.358-6.5-4.858-6.5-2.642 0-4.214 1.786-4.928 3.5-.214.643-.286 1.5-.286 2.357v16.072h-9.571s.143-26.072 0-28.786h9.571v4.072C45.643 33 47.93 30.143 53 30.143c6.286 0 11 4.143 11 12.928v16.572zM44.357 35v-.071c0 .071-.071.071 0 .071z" fill="#2581D0"/></svg>
